X:947
T:Red Haired Girl of Tulloch, The
S:Skye Collection (1887)
N:Transposed from Bm for comparison
Z:Nigel Gatherer
M:4/4
L:1/8
K:Em
E<EG>A B>AB<d | D<DF>E D>FA>F | E<EG>A B>AB<^c | d>BA>F E<E B2 :|
G>BE>B G<BE>B | F<AD>A F<AD>A | G<BE>B G<BE>B | d>BA>F E<E B2 | 
G>BE>B G>BE>B | F>AD>A F>AD>A | E<EG>A B>AB<^c | d>BA>F E<E B2 ||
<end>
<start>
